src/22/panel/mintupdate-updates-available.svg

<svg xmlns="http://www.w3.org/2000/svg" width="22" height="22" version="1.1">
 <defs>
  <style id="current-color-scheme" type="text/css">
   .ColorScheme-Text { color:#bebebe; } .ColorScheme-Highlight { color:#5294e2; }
  </style>
 </defs>
 <g>
  <path style="fill:currentColor;fill-rule:evenodd" class="ColorScheme-Text" d="m 9,9 3,0 0,5 1,0 0,2 -4,0 0,-2 1,0 0,-3 -1,0 0,-2 z m 1,-3 2,0 0,2 -2,0 0,-2 z M 11,3 C 8.8519,4.9698 5.2346,6.7049 4,7 4,12.333 6.625,18.111 11,19 15.375,18.111 18,12.333 18,7 16.765,6.7049 13.148,4.9698 11,3 Z"/>
  <circle style="fill:currentColor" class="ColorScheme-Highlight" cx="18" cy="18" r="2"/>
 </g>
</svg>

<svg xmlns="http://www.w3.org/2000/svg" width="22" height="22"><g fill="currentColor"><path d="M9 9h3v5h1v2H9v-2h1v-3H9V9zm1-3h2v2h-2V6zm1-3C8.852 4.97 5.235 6.705 4 7c0 5.333 2.625 11.111 7 12 4.375-.889 7-6.667 7-12-1.235-.295-4.852-2.03-7-4z" fill-rule="evenodd" color="#bebebe"/><circle cx="18" cy="18" r="2" color="#5294e2"/></g></svg>
